X:1
T:Tuesday Evening Before Dinner
C:Thornton Rose
H:12/19/2001. Copyright (c) 2001, Thornton Rose.
R:Jig
Q:1/4=160
M:6/8
L:1/8
K:G
D | BAG E2 D | G3 G2 B | BAB d2 B | A3 A2 B | BAG E2 A | AGE D2 D |
DEG AGE | G3 G2 :|
B | BAB d2 d | ege d2 e | dBA B2 d | e3 e2 g | age d2 e | dBA G2 A |
BAG DEG | G3 G2 :|
